src/images/trading_app/header/trade/ic-trade-normal-light.svg

<?xml version="1.0" encoding="UTF-8"?>
<svg width="16px" height="16px" viewBox="0 0 16 16" version="1.1" xmlns="http://www.w3.org/2000/svg" xmlns:xlink="http://www.w3.org/1999/xlink">
    <!-- Generator: Sketch 49 (51002) - http://www.bohemiancoding.com/sketch -->
    <title>icons/system/binary/header/trade/ic-trade-normal-light</title>
    <desc>Created with Sketch.</desc>
    <defs></defs>
    <g id="icons/system/binary/header/trade/ic-trade-normal-light" stroke="none" stroke-width="1" fill="none" fill-rule="evenodd">
        <g id="icons/normal/trade" stroke="#2A3052">
            <path d="M0.5,15.5 L3.5,15.5 L3.5,9 C3.5,8.72385763 3.27614237,8.5 3,8.5 L1,8.5 C0.723857625,8.5 0.5,8.72385763 0.5,9 L0.5,15.5 Z M12.5,15.5 L15.5,15.5 L15.5,1 C15.5,0.723857625 15.2761424,0.5 15,0.5 L13,0.5 C12.7238576,0.5 12.5,0.723857625 12.5,1 L12.5,15.5 Z M6.5,15.5 L9.5,15.5 L9.5,5 C9.5,4.72385763 9.27614237,4.5 9,4.5 L7,4.5 C6.72385763,4.5 6.5,4.72385763 6.5,5 L6.5,15.5 Z" id="Combined-Shape"></path>
        </g>
    </g>
</svg>

<svg width="16" height="16" viewBox="0 0 16 16" xmlns="http://www.w3.org/2000/svg"><title>icons/system/binary/header/trade/ic-trade-normal-light</title><path d="M.5 15.5h3V9a.5.5 0 0 0-.5-.5H1a.5.5 0 0 0-.5.5v6.5zm12 0h3V1a.5.5 0 0 0-.5-.5h-2a.5.5 0 0 0-.5.5v14.5zm-6 0h3V5a.5.5 0 0 0-.5-.5H7a.5.5 0 0 0-.5.5v10.5z" stroke="#2A3052" fill="none" fill-rule="evenodd"/></svg>
